img/icon.svg

<?xml version="1.0" encoding="UTF-8" standalone="no"?>
<svg
   xmlns:dc="http://purl.org/dc/elements/1.1/"
   xmlns:cc="http://creativecommons.org/ns#"
   xmlns:rdf="http://www.w3.org/1999/02/22-rdf-syntax-ns#"
   xmlns:svg="http://www.w3.org/2000/svg"
   xmlns="http://www.w3.org/2000/svg"
   xmlns:xlink="http://www.w3.org/1999/xlink"
   xmlns:sodipodi="http://sodipodi.sourceforge.net/DTD/sodipodi-0.dtd"
   xmlns:inkscape="http://www.inkscape.org/namespaces/inkscape"
   inkscape:export-ydpi="3840"
   inkscape:export-xdpi="3840"
   inkscape:export-filename="C:\Users\toka-desk\Pictures\icon\Tokatools\tokatools.png"
   inkscape:version="1.0 (4035a4fb49, 2020-05-01)"
   sodipodi:docname="toolbox.svg"
   id="svg4"
   version="1.1"
   stroke-linejoin="round"
   stroke-linecap="round"
   stroke-width="2"
   stroke="#ffffff"
   fill="none"
   viewBox="0 0 24 24"
   height="50"
   width="50">
  <metadata
     id="metadata10">
    <rdf:RDF>
      <cc:Work
         rdf:about="">
        <dc:format>image/svg+xml</dc:format>
        <dc:type
           rdf:resource="http://purl.org/dc/dcmitype/StillImage" />
        <dc:title />
      </cc:Work>
    </rdf:RDF>
  </metadata>
  <defs
     id="defs8">
    <linearGradient
       inkscape:collect="always"
       id="linearGradient933">
      <stop
         style="stop-color:#ffcb8d;stop-opacity:1"
         offset="0"
         id="stop929" />
      <stop
         style="stop-color:#fa8b00;stop-opacity:1"
         offset="1"
         id="stop931" />
    </linearGradient>
    <linearGradient
       id="linearGradient2239"
       inkscape:collect="always">
      <stop
         id="stop2235"
         offset="0"
         style="stop-color:#d05500;stop-opacity:1" />
      <stop
         id="stop2237"
         offset="1"
         style="stop-color:#bc4d00;stop-opacity:1" />
    </linearGradient>
    <linearGradient
       inkscape:collect="always"
       id="linearGradient2233">
      <stop
         style="stop-color:#ff7a1e;stop-opacity:1"
         offset="0"
         id="stop2229" />
      <stop
         style="stop-color:#f56400;stop-opacity:1"
         offset="1"
         id="stop2231" />
    </linearGradient>
    <linearGradient
       id="linearGradient2223"
       inkscape:collect="always">
      <stop
         id="stop2219"
         offset="0"
         style="stop-color:#ff6d08;stop-opacity:1" />
      <stop
         id="stop2221"
         offset="1"
         style="stop-color:#f56400;stop-opacity:1" />
    </linearGradient>
    <linearGradient
       id="linearGradient2207"
       inkscape:collect="always">
      <stop
         id="stop2203"
         offset="0"
         style="stop-color:#ffa95f;stop-opacity:1" />
      <stop
         id="stop2205"
         offset="1"
         style="stop-color:#ff7700;stop-opacity:1" />
    </linearGradient>
    <linearGradient
       gradientTransform="matrix(0.41545597,0,0,0.48,1.6136008,-0.21793947)"
       gradientUnits="userSpaceOnUse"
       y2="25.234375"
       x2="45.21875"
       y1="20.128906"
       x1="4.7890625"
       id="linearGradient2209"
       xlink:href="#linearGradient2207"
       inkscape:collect="always" />
    <linearGradient
       gradientTransform="matrix(0.86553328,0,0,1.0632542,1.6136008,-1.4312936)"
       gradientUnits="userSpaceOnUse"
       y2="19.186089"
       x2="21.712389"
       y1="12.1125"
       x1="2.2950001"
       id="linearGradient2217"
       xlink:href="#linearGradient933"
       inkscape:collect="always" />
    <linearGradient
       gradientUnits="userSpaceOnUse"
       y2="9.6599998"
       x2="8.5256176"
       y1="5.260253"
       x1="7.671555"
       id="linearGradient2225"
       xlink:href="#linearGradient2223"
       inkscape:collect="always"
       gradientTransform="translate(-2.5033951e-7,-0.21793947)" />
    <linearGradient
       gradientUnits="userSpaceOnUse"
       y2="9.6599407"
       x2="16.345304"
       y1="5.2537498"
       x1="15.476242"
       id="linearGradient2227"
       xlink:href="#linearGradient2233"
       inkscape:collect="always"
       gradientTransform="translate(-2.5033951e-7,-0.21793947)" />
    <linearGradient
       gradientUnits="userSpaceOnUse"
       y2="6.1227531"
       x2="15.476242"
       y1="5.2537498"
       x1="8.5255585"
       id="linearGradient2241"
       xlink:href="#linearGradient2239"
       inkscape:collect="always"
       gradientTransform="translate(-2.5033951e-7,-0.21793947)" />
    <filter
       height="1.3485205"
       y="-0.17426025"
       width="1.1975403"
       x="-0.098770171"
       id="filter901"
       style="color-interpolation-filters:sRGB"
       inkscape:collect="always">
      <feGaussianBlur
         id="feGaussianBlur903"
         stdDeviation="0.69139121"
         inkscape:collect="always" />
    </filter>
    <filter
       height="1.7531751"
       y="-0.37658754"
       width="4.818685"
       x="-1.9093425"
       id="filter917"
       style="color-interpolation-filters:sRGB"
       inkscape:collect="always">
      <feGaussianBlur
         id="feGaussianBlur919"
         stdDeviation="0.69139121"
         inkscape:collect="always" />
    </filter>
    <filter
       height="4.8192064"
       y="-1.9096032"
       width="1.4774009"
       x="-0.23870043"
       id="filter921"
       style="color-interpolation-filters:sRGB"
       inkscape:collect="always">
      <feGaussianBlur
         id="feGaussianBlur923"
         stdDeviation="0.69139121"
         inkscape:collect="always" />
    </filter>
    <filter
       height="1.7528547"
       y="-0.37642736"
       width="4.8186872"
       x="-1.9093436"
       id="filter925"
       style="color-interpolation-filters:sRGB"
       inkscape:collect="always">
      <feGaussianBlur
         id="feGaussianBlur927"
         stdDeviation="0.69139121"
         inkscape:collect="always" />
    </filter>
  </defs>
  <sodipodi:namedview
     inkscape:snap-bbox="true"
     inkscape:snap-intersection-paths="true"
     inkscape:snap-smooth-nodes="true"
     inkscape:snap-midpoints="true"
     inkscape:snap-center="true"
     inkscape:snap-object-midpoints="true"
     inkscape:snap-text-baseline="true"
     inkscape:object-paths="true"
     inkscape:document-rotation="0"
     inkscape:current-layer="layer5"
     inkscape:window-maximized="1"
     inkscape:window-y="-9"
     inkscape:window-x="-9"
     inkscape:cy="28.611007"
     inkscape:cx="12.132396"
     inkscape:zoom="11.313709"
     showguides="true"
     showgrid="false"
     id="namedview6"
     inkscape:window-height="1361"
     inkscape:window-width="2560"
     inkscape:pageshadow="2"
     inkscape:pageopacity="0"
     guidetolerance="10"
     gridtolerance="10"
     objecttolerance="10"
     borderopacity="1"
     bordercolor="#666666"
     pagecolor="#ffffff" />
  <g
     style="display:none"
     inkscape:label="Layer 4"
     id="layer4"
     inkscape:groupmode="layer">
    <circle
       r="12"
       cy="12"
       cx="12"
       id="path4759"
       style="fill:#ff7f2a;fill-opacity:1;stroke:none;stroke-width:1.05653" />
  </g>
  <g
     style="display:none"
     inkscape:label="Layer 2"
     id="layer2"
     inkscape:groupmode="layer">
    <path
       inkscape:connector-curvature="0"
       id="path4754"
       d="M 9.506447,6.6482954 C 9.1538696,6.8158184 8.8195003,7.0218064 8.4750106,7.2060328 7.9380804,7.5079322 7.3937682,7.7989282 6.8620424,8.1086834 6.6773391,8.2210423 6.6904589,8.4555201 6.6964807,8.6438747 c 0.00178,0.8809878 -0.00356,1.7625583 0.00267,2.6431813 0.00284,0.202452 0.1840706,0.322826 0.3500418,0.397208 0.8023617,0.433887 1.5973959,0.881904 2.4077378,1.300705 0.1902229,0.08718 0.3778248,-0.02951 0.5403381,-0.121171 0.7916636,-0.431291 1.5800396,-0.869818 2.3651186,-1.312261 0.174134,-0.100128 0.1919,-0.314818 0.178895,-0.494928 8.36e-4,-0.893052 0.0089,-1.7866687 0.0053,-2.6793703 C 12.544291,8.1741604 12.36257,8.0531613 12.195974,7.9789378 11.378648,7.5387956 10.5692,7.0829796 9.7451216,6.6559746 9.6638545,6.632256 9.5892446,6.6299645 9.5064537,6.6482803 Z"
       style="fill:#333333;fill-opacity:1;stroke:none;stroke-width:0.0329019" />
  </g>
  <g
     style="display:none"
     inkscape:label="Layer 3"
     id="layer3"
     inkscape:groupmode="layer">
    <path
       sodipodi:nodetypes="asscccccsascaccaccaca"
       d="m 13.939264,4.9588388 c 1.024338,0.2408469 1.889603,0.4600863 2.818423,1.4219633 0.928821,0.9618728 1.156314,2.4436257 1.213412,3.4836427 0.05897,1.0739472 0.703985,3.6489752 1.580575,4.5000962 L 20.196508,14.952548 31.48888,25.579737 28.258159,29.119084 17.07083,18.71247 c -0.731393,-0.718466 -2.457475,-1.12822 -3.76662,-1.066615 -1.050935,0.04945 -2.110509,0.197374 -3.112566,-0.07267 C 9.6102629,17.416508 9.0242149,17.138395 8.6091249,16.702216 7.2820312,15.307695 5.2312364,11.996692 5.2312364,11.996692 c 0,0 -0.088671,-0.458264 0.028579,-0.634578 C 5.3726591,11.19244 5.81236,11.100583 5.81236,11.100583 l 4.820319,2.714077 c 0,0 1.722947,-1.350227 2.198248,-2.297634 0.460241,-0.917392 0.510885,-3.0364265 0.510885,-3.0364265 L 8.6061359,5.9571456 c 0,0 -0.294346,-0.3155902 -0.278829,-0.5081852 0.01568,-0.1946035 0.360317,-0.4617628 0.360317,-0.4617628 0,0 3.5475381,-0.4290387 5.2516401,-0.028359 z"
       inkscape:transform-center-y="-0.066665181"
       inkscape:transform-center-x="0.73694063"
       style="display:inline;opacity:0.998;fill:#cccccc;fill-opacity:1;stroke:#646464;stroke-width:0.145708;stroke-miterlimit:4;stroke-dasharray:none;stroke-opacity:1"
       id="path1543" />
  </g>
  <g
     inkscape:groupmode="layer"
     id="g1875"
     inkscape:label="Layer 5 コピー">
    <path
       d="m 4.9486087,9.4420605 c -0.7472874,0 -1.348609,0.6947425 -1.348609,1.5581255 v 0.894375 5.511563 c 0,0.863384 0.6013216,1.558125 1.348609,1.558125 H 19.051391 c 0.747287,0 1.348609,-0.694741 1.348609,-1.558125 v -5.511563 -0.894375 c 0,-0.863383 -0.601322,-1.5581255 -1.348609,-1.5581255 z"
       style="opacity:0.998;mix-blend-mode:normal;fill:#000000;fill-opacity:1;stroke:none;stroke-width:0.223282;stroke-miterlimit:4;stroke-dasharray:none;stroke-opacity:1;filter:url(#filter901)"
       id="path1871" />
  </g>
  <g
     inkscape:groupmode="layer"
     id="g2010"
     inkscape:label="Layer 6 コピー"
     style="display:inline">
    <rect
       style="display:inline;opacity:0.998;fill:#000000;fill-opacity:1;stroke:none;stroke-width:0.210518;stroke-miterlimit:4;stroke-dasharray:none;stroke-opacity:1;filter:url(#filter921)"
       id="rect2032-6"
       width="6.9515538"
       height="0.86894435"
       x="8.5246878"
       y="5.0358105"
       ry="0"
       rx="0" />
  </g>
  <g
     style="display:inline"
     inkscape:label="Layer 6"
     id="layer6"
     inkscape:groupmode="layer">
    <rect
       rx="0"
       ry="0"
       y="5.0358105"
       x="8.5246878"
       height="0.86894435"
       width="6.9515538"
       id="rect2032"
       style="display:inline;opacity:0.998;fill:url(#linearGradient2241);fill-opacity:1;stroke:none;stroke-width:0.210518;stroke-miterlimit:4;stroke-dasharray:none;stroke-opacity:1" />
  </g>
  <g
     style="display:inline"
     inkscape:groupmode="layer"
     id="g2091"
     inkscape:label="Layer 7 コピー">
    <path
       d="m 15.476242,5.035751 v 0.8690626 3.5371876 h 0.869063 V 5.9048136 Z"
       style="display:inline;opacity:0.998;fill:#000000;fill-opacity:1;stroke:none;stroke-width:0.24;stroke-miterlimit:4;stroke-dasharray:none;stroke-opacity:1;filter:url(#filter917)"
       id="path2087" />
    <path
       d="M 8.5256174,5.035751 7.6565549,5.9048136 V 9.4438761 H 8.5256174 V 5.9048136 Z"
       style="display:inline;opacity:0.998;fill:#000000;fill-opacity:1;stroke:none;stroke-width:0.24;stroke-miterlimit:4;stroke-dasharray:none;stroke-opacity:1;filter:url(#filter925)"
       id="path2089" />
  </g>
  <g
     style="display:inline;opacity:1"
     inkscape:label="Layer 5"
     id="layer5"
     inkscape:groupmode="layer">
    <path
       d="M 20.4,11.447374 H 3.5999995 v 5.860192 c 0,0.917997 0.6013217,1.656683 1.348609,1.656683 H 19.051391 c 0.747286,0 1.348609,-0.738686 1.348609,-1.656683 z"
       style="opacity:0.998;fill:url(#linearGradient2217);fill-opacity:1.0;stroke:none;stroke-width:0.230235;stroke-miterlimit:4;stroke-dasharray:none;stroke-opacity:1"
       id="rect1725" />
    <path
       d="m 4.9486086,9.4420605 c -0.7472874,0 -1.3486091,0.6947425 -1.3486091,1.5581255 v 0.894375 H 20.4 v -0.894375 c 0,-0.863383 -0.601322,-1.5581255 -1.348609,-1.5581255 z"
       style="opacity:0.998;fill:url(#linearGradient2209);fill-opacity:1;stroke:none;stroke-width:0.223282;stroke-miterlimit:4;stroke-dasharray:none;stroke-opacity:1"
       id="path1754" />
  </g>
  <g
     style="display:inline"
     inkscape:label="Layer 7"
     id="layer8"
     inkscape:groupmode="layer">
    <path
       id="rect1597"
       style="display:inline;opacity:0.998;fill:url(#linearGradient2227);fill-opacity:1;stroke:none;stroke-width:0.24;stroke-miterlimit:4;stroke-dasharray:none;stroke-opacity:1"
       d="m 15.476242,5.035751 v 0.8690626 3.5371876 h 0.869063 V 5.9048136 Z" />
    <path
       id="path2050"
       style="display:inline;opacity:0.998;fill:url(#linearGradient2225);fill-opacity:1;stroke:none;stroke-width:0.24;stroke-miterlimit:4;stroke-dasharray:none;stroke-opacity:1"
       d="M 8.5256174,5.035751 7.6565549,5.9048136 V 9.4438761 H 8.5256174 V 5.9048136 Z" />
  </g>
  <g
     style="display:none"
     inkscape:label="Layer 8"
     id="layer9"
     inkscape:groupmode="layer">
    <text
       id="text1729"
       y="18.674217"
       x="9.6985998"
       style="font-style:normal;font-variant:normal;font-weight:600;font-stretch:normal;font-size:8.31998px;line-height:1.25;font-family:'Segoe UI';-inkscape-font-specification:'Segoe UI Semi-Bold';letter-spacing:0px;word-spacing:0px;display:inline;fill:#ffffff;fill-opacity:1;stroke:none;stroke-width:0.96"
       xml:space="preserve"><tspan
         style="font-style:normal;font-variant:normal;font-weight:600;font-stretch:normal;font-size:8.31998px;font-family:'Segoe UI';-inkscape-font-specification:'Segoe UI Semi-Bold';fill:#ffffff;fill-opacity:1;stroke-width:0.96"
         y="18.674217"
         x="9.6985998"
         id="tspan1727"
         sodipodi:role="line">T</tspan></text>
  </g>
</svg>

<?xml version="1.0" encoding="UTF-8"?>
<svg width="50" height="50" fill="none" stroke="#ffffff" stroke-linecap="round" stroke-linejoin="round" stroke-width="2" version="1.1" viewBox="0 0 24 24" xmlns="http://www.w3.org/2000/svg" xmlns:cc="http://creativecommons.org/ns#" xmlns:dc="http://purl.org/dc/elements/1.1/" xmlns:rdf="http://www.w3.org/1999/02/22-rdf-syntax-ns#" xmlns:xlink="http://www.w3.org/1999/xlink">
 <metadata>
  <rdf:RDF>
   <cc:Work rdf:about="">
    <dc:format>image/svg+xml</dc:format>
    <dc:type rdf:resource="http://purl.org/dc/dcmitype/StillImage"/>
    <dc:title/>
   </cc:Work>
  </rdf:RDF>
 </metadata>
 <defs>
  <linearGradient id="linearGradient2209" x1="4.7891" x2="45.219" y1="20.129" y2="25.234" gradientTransform="matrix(.41546 0 0 .48 1.6136 -.21794)" gradientUnits="userSpaceOnUse">
   <stop stop-color="#ffa95f" offset="0"/>
   <stop stop-color="#f70" offset="1"/>
  </linearGradient>
  <linearGradient id="linearGradient2217" x1="2.295" x2="21.712" y1="12.112" y2="19.186" gradientTransform="matrix(.86553 0 0 1.0633 1.6136 -1.4313)" gradientUnits="userSpaceOnUse">
   <stop stop-color="#ffcb8d" offset="0"/>
   <stop stop-color="#fa8b00" offset="1"/>
  </linearGradient>
  <linearGradient id="linearGradient2225" x1="7.6716" x2="8.5256" y1="5.2603" y2="9.66" gradientTransform="translate(-2.5034e-7 -.21794)" gradientUnits="userSpaceOnUse">
   <stop stop-color="#ff6d08" offset="0"/>
   <stop stop-color="#f56400" offset="1"/>
  </linearGradient>
  <linearGradient id="linearGradient2227" x1="15.476" x2="16.345" y1="5.2537" y2="9.6599" gradientTransform="translate(-2.5034e-7 -.21794)" gradientUnits="userSpaceOnUse">
   <stop stop-color="#ff7a1e" offset="0"/>
   <stop stop-color="#f56400" offset="1"/>
  </linearGradient>
  <linearGradient id="linearGradient2241" x1="8.5256" x2="15.476" y1="5.2537" y2="6.1228" gradientTransform="translate(-2.5034e-7 -.21794)" gradientUnits="userSpaceOnUse">
   <stop stop-color="#d05500" offset="0"/>
   <stop stop-color="#bc4d00" offset="1"/>
  </linearGradient>
  <filter id="filter901" x="-.09877" y="-.17426" width="1.1975" height="1.3485" color-interpolation-filters="sRGB">
   <feGaussianBlur stdDeviation="0.69139121"/>
  </filter>
  <filter id="filter917" x="-1.9093" y="-.37659" width="4.8187" height="1.7532" color-interpolation-filters="sRGB">
   <feGaussianBlur stdDeviation="0.69139121"/>
  </filter>
  <filter id="filter921" x="-.2387" y="-1.9096" width="1.4774" height="4.8192" color-interpolation-filters="sRGB">
   <feGaussianBlur stdDeviation="0.69139121"/>
  </filter>
  <filter id="filter925" x="-1.9093" y="-.37643" width="4.8187" height="1.7529" color-interpolation-filters="sRGB">
   <feGaussianBlur stdDeviation="0.69139121"/>
  </filter>
 </defs>
 <g display="none">
  <circle cx="12" cy="12" r="12" fill="#ff7f2a" stroke="none"/>
  <path d="m9.5064 6.6483c-0.35258 0.16752-0.68695 0.37351-1.0314 0.55774-0.53693 0.3019-1.0812 0.5929-1.613 0.90265-0.1847 0.11236-0.17158 0.34684-0.16556 0.53519 0.00178 0.88099-0.00356 1.7626 0.00267 2.6432 0.00284 0.20245 0.18407 0.32283 0.35004 0.39721 0.80236 0.43389 1.5974 0.8819 2.4077 1.3007 0.19022 0.08718 0.37782-0.02951 0.54034-0.12117 0.79166-0.43129 1.58-0.86982 2.3651-1.3123 0.17413-0.10013 0.1919-0.31482 0.1789-0.49493 8.36e-4 -0.89305 0.0089-1.7867 0.0053-2.6794-0.002291-0.20308-0.18401-0.32408-0.35061-0.3983-0.81733-0.44014-1.6268-0.89596-2.4509-1.323-0.081267-0.023719-0.15588-0.02601-0.23867-0.0076943z" fill="#333" stroke="none"/>
  <path d="m13.939 4.9588c1.0243 0.24085 1.8896 0.46009 2.8184 1.422 0.92882 0.96187 1.1563 2.4436 1.2134 3.4836 0.05897 1.0739 0.70398 3.649 1.5806 4.5001l0.64483 0.58801 11.292 10.627-3.2307 3.5393-11.187-10.407c-0.73139-0.71847-2.4575-1.1282-3.7666-1.0666-1.0509 0.04945-2.1105 0.19737-3.1126-0.07267-0.58138-0.15668-1.1674-0.43479-1.5825-0.87097-1.3271-1.3945-3.3779-4.7055-3.3779-4.7055s-0.088671-0.45826 0.028579-0.63458c0.11284-0.16967 0.55254-0.26153 0.55254-0.26153l4.8203 2.7141s1.7229-1.3502 2.1982-2.2976c0.46024-0.91739 0.51088-3.0364 0.51088-3.0364l-4.7357-2.5235s-0.29435-0.31559-0.27883-0.50819c0.01568-0.1946 0.36032-0.46176 0.36032-0.46176s3.5475-0.42904 5.2516-0.028359z" display="inline" fill="#ccc" opacity=".998" stroke="#646464" stroke-width=".14571"/>
 </g>
 <path d="m4.9486 9.4421c-0.74729 0-1.3486 0.69474-1.3486 1.5581v6.4059c0 0.86338 0.60132 1.5581 1.3486 1.5581h14.103c0.74729 0 1.3486-0.69474 1.3486-1.5581v-6.4059c0-0.86338-0.60132-1.5581-1.3486-1.5581z" fill="#000" filter="url(#filter901)" opacity=".998" stroke="none" style="mix-blend-mode:normal"/>
 <g stroke="none">
  <rect x="8.5247" y="5.0358" width="6.9516" height=".86894" rx="0" ry="0" fill="#000" filter="url(#filter921)" opacity=".998"/>
  <rect x="8.5247" y="5.0358" width="6.9516" height=".86894" rx="0" ry="0" fill="url(#linearGradient2241)" opacity=".998"/>
  <path d="m15.476 5.0358v4.4063h0.86906v-3.5372z" fill="#000" filter="url(#filter917)" opacity=".998"/>
  <path d="m8.5256 5.0358-0.86906 0.86906v3.5391h0.86906v-3.5391z" fill="#000" filter="url(#filter925)" opacity=".998"/>
 </g>
 <g stroke="none">
  <path d="m20.4 11.447h-16.8v5.8602c0 0.918 0.60132 1.6567 1.3486 1.6567h14.103c0.74729 0 1.3486-0.73869 1.3486-1.6567z" fill="url(#linearGradient2217)" opacity=".998"/>
  <path d="m4.9486 9.4421c-0.74729 0-1.3486 0.69474-1.3486 1.5581v0.89438h16.8v-0.89438c0-0.86338-0.60132-1.5581-1.3486-1.5581z" fill="url(#linearGradient2209)" opacity=".998"/>
 </g>
 <g stroke="none">
  <path d="m15.476 5.0358v4.4063h0.86906v-3.5372z" fill="url(#linearGradient2227)" opacity=".998"/>
  <path d="m8.5256 5.0358-0.86906 0.86906v3.5391h0.86906v-3.5391z" fill="url(#linearGradient2225)" opacity=".998"/>
 </g>
 <g display="none">
  <text x="9.6985998" y="18.674217" display="inline" fill="#ffffff" font-family="'Segoe UI'" font-size="8.32px" font-weight="600" letter-spacing="0px" stroke="none" stroke-width=".96" word-spacing="0px" style="line-height:1.25" xml:space="preserve"><tspan x="9.6985998" y="18.674217" fill="#ffffff" font-family="'Segoe UI'" font-size="8.32px" font-weight="600" stroke-width=".96">T</tspan></text>
 </g>
</svg>
